src/icons/slack.svg

<?xml version="1.0" encoding="UTF-8"?>
<svg xmlns="http://www.w3.org/2000/svg" xmlns:xlink="http://www.w3.org/1999/xlink" width="32" height="32" viewBox="0 0 32 32" version="1.1">
<g id="surface1">
<path style="fill-rule:evenodd;fill:rgb(87.843138%,11.764706%,35.294119%);fill-opacity:1;stroke-width:1.8518;stroke-linecap:round;stroke-linejoin:round;stroke:rgb(87.843138%,11.764706%,35.294119%);stroke-opacity:1;stroke-miterlimit:4;" d="M 9.724329 21.13371 C 9.724329 19.245289 11.152058 17.726252 12.924268 17.726252 C 14.700629 17.726252 16.124207 19.245289 16.124207 21.13371 L 16.124207 29.517468 C 16.124207 31.405888 14.700629 32.924926 12.924268 32.924926 C 11.152058 32.924926 9.724329 31.405888 9.724329 29.517468 Z M 9.724329 21.13371 " transform="matrix(0.94118,0,0,0.94118,0,0)"/>
<path style="fill-rule:evenodd;fill:rgb(92.54902%,69.803923%,17.647059%);fill-opacity:1;stroke-width:1.8518;stroke-linecap:round;stroke-linejoin:round;stroke:rgb(92.54902%,69.803923%,17.647059%);stroke-opacity:1;stroke-miterlimit:4;" d="M 21.13371 24.12613 C 19.245289 24.12613 17.726252 22.698401 17.726252 20.926191 C 17.726252 19.153981 19.245289 17.726252 21.13371 17.726252 L 29.517468 17.726252 C 31.405888 17.726252 32.924926 19.153981 32.924926 20.926191 C 32.924926 22.698401 31.405888 24.12613 29.517468 24.12613 Z M 21.13371 24.12613 " transform="matrix(0.94118,0,0,0.94118,0,0)"/>
<path style="fill-rule:evenodd;fill:rgb(18.431373%,71.372551%,48.627451%);fill-opacity:1;stroke-width:1.8518;stroke-linecap:round;stroke-linejoin:round;stroke:rgb(18.431373%,71.372551%,48.627451%);stroke-opacity:1;stroke-miterlimit:4;" d="M 17.726252 4.332992 C 17.726252 2.444571 19.153981 0.925534 20.926191 0.925534 C 22.698401 0.925534 24.12613 2.444571 24.12613 4.332992 L 24.12613 12.7209 C 24.12613 14.60517 22.698401 16.124207 20.926191 16.124207 C 19.153981 16.124207 17.726252 14.60517 17.726252 12.7209 Z M 17.726252 4.332992 " transform="matrix(0.94118,0,0,0.94118,0,0)"/>
<path style="fill-rule:evenodd;fill:rgb(21.176471%,77.254903%,94.509804%);fill-opacity:1;stroke-width:1.8518;stroke-linecap:round;stroke-linejoin:round;stroke:rgb(21.176471%,77.254903%,94.509804%);stroke-opacity:1;stroke-miterlimit:4;" d="M 21.133179 24.124803 C 19.244758 24.124803 17.725721 22.701224 17.725721 20.924863 C 17.725721 19.152653 19.244758 17.724924 21.133179 17.724924 L 29.521087 17.724924 C 31.405357 17.724924 32.924395 19.152653 32.924395 20.924863 C 32.924395 22.701224 31.405357 24.124803 29.521087 24.124803 Z M 21.133179 24.124803 " transform="matrix(0.94118,0,0,0.94118,-15.812,-7.53)"/>
<path style="fill-rule:evenodd;fill:rgb(92.54902%,69.803923%,17.647059%);fill-opacity:1;stroke-width:1.8518;stroke-linecap:round;stroke-linejoin:miter;stroke:rgb(92.54902%,69.803923%,17.647059%);stroke-opacity:1;stroke-miterlimit:4;" d="M 17.726252 29.724986 C 17.726252 31.493046 19.158131 32.924926 20.926191 32.924926 C 22.694251 32.924926 24.12613 31.493046 24.12613 29.724986 C 24.12613 27.952776 22.698401 26.525047 20.926191 26.525047 L 17.726252 26.525047 Z M 17.726252 29.724986 " transform="matrix(0.94118,0,0,0.94118,0,0)"/>
<path style="fill-rule:evenodd;fill:rgb(18.431373%,71.372551%,48.627451%);fill-opacity:1;stroke-width:1.8518;stroke-linecap:round;stroke-linejoin:miter;stroke:rgb(18.431373%,71.372551%,48.627451%);stroke-opacity:1;stroke-miterlimit:4;" d="M 29.724986 16.124207 L 26.525047 16.124207 L 26.525047 12.924268 C 26.525047 11.152058 27.952776 9.724329 29.724986 9.724329 C 31.497197 9.724329 32.924926 11.152058 32.924926 12.924268 C 32.929076 13.775095 32.592896 14.588568 31.991091 15.190373 C 31.389287 15.792177 30.575813 16.128358 29.724986 16.124207 Z M 29.724986 16.124207 " transform="matrix(0.94118,0,0,0.94118,0,0)"/>
<path style="fill-rule:evenodd;fill:rgb(87.843138%,11.764706%,35.294119%);fill-opacity:1;stroke-width:1.8518;stroke-linecap:round;stroke-linejoin:miter;stroke:rgb(87.843138%,11.764706%,35.294119%);stroke-opacity:1;stroke-miterlimit:4;" d="M 4.125473 17.726252 L 7.325412 17.726252 L 7.325412 20.926191 C 7.325412 22.698401 5.897683 24.12613 4.125473 24.12613 C 3.274646 24.12613 2.461172 23.78995 1.859368 23.192296 C 1.261714 22.590492 0.921383 21.777018 0.925534 20.926191 C 0.925534 19.153981 2.353263 17.726252 4.125473 17.726252 Z M 4.125473 17.726252 " transform="matrix(0.94118,0,0,0.94118,0,0)"/>
<path style="fill-rule:evenodd;fill:rgb(21.176471%,77.254903%,94.509804%);fill-opacity:1;stroke-width:1.8518;stroke-linecap:round;stroke-linejoin:miter;stroke:rgb(21.176471%,77.254903%,94.509804%);stroke-opacity:1;stroke-miterlimit:4;" d="M 16.124207 4.125473 L 16.124207 7.325412 L 12.924268 7.325412 C 12.073441 7.325412 11.259968 6.989232 10.658163 6.391578 C 10.060509 5.789773 9.724329 4.972149 9.724329 4.125473 C 9.724329 2.353263 11.152058 0.925534 12.924268 0.925534 C 13.775095 0.921383 14.588568 1.257564 15.190373 1.859368 C 15.792177 2.461172 16.128358 3.274646 16.124207 4.125473 Z M 16.124207 4.125473 " transform="matrix(0.94118,0,0,0.94118,0,0)"/>
</g>
</svg>

<svg role="img" viewBox="0 0 32 32" xmlns="http://www.w3.org/2000/svg"><path d="M9.724 21.134c0-1.889 1.428-3.408 3.2-3.408 1.777 0 3.2 1.52 3.2 3.408v8.384c0 1.888-1.423 3.407-3.2 3.407-1.772 0-3.2-1.519-3.2-3.407Zm0 0" style="fill-rule:evenodd;fill:rgb(87.843138%,11.764706%,35.294119%);fill-opacity:1;stroke-width:1.8518;stroke-linecap:round;stroke-linejoin:round;stroke:rgb(87.843138%,11.764706%,35.294119%);stroke-opacity:1;stroke-miterlimit:4" transform="scale(.94118)"/><path d="M21.134 24.126c-1.889 0-3.408-1.428-3.408-3.2 0-1.772 1.52-3.2 3.408-3.2h8.384c1.888 0 3.407 1.428 3.407 3.2 0 1.772-1.519 3.2-3.407 3.2Zm0 0" style="fill-rule:evenodd;fill:rgb(92.54902%,69.803923%,17.647059%);fill-opacity:1;stroke-width:1.8518;stroke-linecap:round;stroke-linejoin:round;stroke:rgb(92.54902%,69.803923%,17.647059%);stroke-opacity:1;stroke-miterlimit:4" transform="scale(.94118)"/><path d="M17.726 4.333c0-1.888 1.428-3.407 3.2-3.407 1.772 0 3.2 1.519 3.2 3.407v8.388c0 1.884-1.428 3.403-3.2 3.403-1.772 0-3.2-1.519-3.2-3.403Zm0 0" style="fill-rule:evenodd;fill:rgb(18.431373%,71.372551%,48.627451%);fill-opacity:1;stroke-width:1.8518;stroke-linecap:round;stroke-linejoin:round;stroke:rgb(18.431373%,71.372551%,48.627451%);stroke-opacity:1;stroke-miterlimit:4" transform="scale(.94118)"/><path d="M21.133 24.124c-1.888 0-3.407-1.423-3.407-3.2 0-1.772 1.519-3.2 3.407-3.2h8.388c1.884 0 3.403 1.428 3.403 3.2 0 1.777-1.519 3.2-3.403 3.2Zm0 0" style="fill-rule:evenodd;fill:rgb(21.176471%,77.254903%,94.509804%);fill-opacity:1;stroke-width:1.8518;stroke-linecap:round;stroke-linejoin:round;stroke:rgb(21.176471%,77.254903%,94.509804%);stroke-opacity:1;stroke-miterlimit:4" transform="translate(-15.812 -7.53)scale(.94118)"/><path d="M17.726 29.725a3.2 3.2 0 1 0 6.4 0c0-1.772-1.428-3.2-3.2-3.2h-3.2Zm0 0" style="fill-rule:evenodd;fill:rgb(92.54902%,69.803923%,17.647059%);fill-opacity:1;stroke-width:1.8518;stroke-linecap:round;stroke-linejoin:miter;stroke:rgb(92.54902%,69.803923%,17.647059%);stroke-opacity:1;stroke-miterlimit:4" transform="scale(.94118)"/><path d="M29.725 16.124h-3.2v-3.2c0-1.772 1.428-3.2 3.2-3.2 1.772 0 3.2 1.428 3.2 3.2a3.19 3.19 0 0 1-3.2 3.2Zm0 0" style="fill-rule:evenodd;fill:rgb(18.431373%,71.372551%,48.627451%);fill-opacity:1;stroke-width:1.8518;stroke-linecap:round;stroke-linejoin:miter;stroke:rgb(18.431373%,71.372551%,48.627451%);stroke-opacity:1;stroke-miterlimit:4" transform="scale(.94118)"/><path d="M4.125 17.726h3.2v3.2c0 1.772-1.427 3.2-3.2 3.2a3.194 3.194 0 0 1-3.2-3.2c0-1.772 1.428-3.2 3.2-3.2Zm0 0" style="fill-rule:evenodd;fill:rgb(87.843138%,11.764706%,35.294119%);fill-opacity:1;stroke-width:1.8518;stroke-linecap:round;stroke-linejoin:miter;stroke:rgb(87.843138%,11.764706%,35.294119%);stroke-opacity:1;stroke-miterlimit:4" transform="scale(.94118)"/><path d="M16.124 4.125v3.2h-3.2a3.194 3.194 0 0 1-3.2-3.2c0-1.772 1.428-3.2 3.2-3.2a3.19 3.19 0 0 1 3.2 3.2Zm0 0" style="fill-rule:evenodd;fill:rgb(21.176471%,77.254903%,94.509804%);fill-opacity:1;stroke-width:1.8518;stroke-linecap:round;stroke-linejoin:miter;stroke:rgb(21.176471%,77.254903%,94.509804%);stroke-opacity:1;stroke-miterlimit:4" transform="scale(.94118)"/></svg>
